X:1
T:Farringdon, 76.76 D
T:Farringdon, 76.76 D
T:John Henry Kurzenknabe, 1890
T:Public Domain Courtesy of the Cyber Hymnal™
C:John Henry Kurzenknabe, 1890
Z:Public Domain
Z:Courtesy of the Cyber Hymnal™
%%score ( 1 2 ) ( 3 4 )
L:1/8
Q:1/4=83
M:4/4
K:A
V:1 treble 
V:2 treble 
V:3 bass 
V:4 bass 
V:1
 [CE] | [CA][CA][Ec][CA] [DA] [DF]2 [FB] | [EA][EG][DF][B,E] [Ec]3 [CE] | %3
 [CA][CA][Ec][EA] [FA] [DF]2 [FB] | [EA][EA][EG][DG] !fermata![CA]3 [CA] | %5
 [FB][EB][Ec][Ec] [Ed] [Ed]2 [Ed] | [Ec][Ec][EB][EA] A2 G[DE] | [CA][CA][Ec][EA] [FA] [DF]2 [FB] | %8
 [EA][EA][EG][DG] !fermata![CA]3 |] %9
V:2
 x | x8 | x8 | x8 | x8 | x8 | x4 E3 x | x8 | x7 |] %9
V:3
 [A,,A,] | [A,,A,][A,,A,][A,,A,][A,,A,] [D,F,] [D,A,]2 [D,D] | %2
 [E,C][E,B,][E,G,][E,G,] [A,,A,]3 [A,,A,] | [A,,A,][A,,A,][A,,A,][C,A,] [D,A,] [D,A,]2 [D,D] | %4
 [E,C][E,C][E,B,][E,B,] !fermata![A,,A,]3 [A,,A,] | %5
 [E,G,][E,G,][E,A,][E,A,] [E,B,] [E,B,]2 [E,B,] | A,A,[G,B,][A,C] C2 B,[E,G,] | %7
 [A,,A,][A,,A,][A,,A,][C,A,] [D,A,] [D,A,]2 [D,D] | [E,C][E,C][E,B,][E,B,] !fermata![A,,A,]3 |] %9
V:4
 x | x8 | x8 | x8 | x8 | x8 | A,A, x E,3 x2 | x8 | x7 |] %9

